X: 182
T: No_41_Cow_Creek_Hunting_Dance_Song_(h).krn
N: Derived from No_41_Cow_Creek_Hunting_Dance_Song_(h).krn
%%abc-version 2.0
%%abcx-abcm2ps-target-version 5.9.1 (29 Sep 2008)
%%abc-creator hum2abc beta
%%abcx-conversion-date 2019/03/15 08:38:45
%%humdrum-veritas 828153408
%%humdrum-veritas-data 3040154169
%%linebreak <none>
%%barnumbers 0
L: 1/8
M: 3/4
K: E clef=bass
[K:clef=bass][M:3/4]z4E,3/E,/ | 
E,4B,2 | 
B,7/A,/ G,3/E,/ | 
G,4B,3/G,/ | 
G,4B,2 ]|:  
[M:2/4]B,A,- A,G, ||  
[M:3/4]B,A, G,E, G,3/E,/ ||  
[M:2/4]E,4 | 
B,3/G,/G,2 | 
E,E,E,2 | 
E,4 | 
G,E,E,2 | 
E,4 ||  
[M:3/4]E,4B,2 ||  
[M:2/4]B,A,-A,2 ||  
[M:3/4]B,A, G,E, G,3/E,/ ||  
[M:2/4]E,4 | 
B,3/G,/G,2 | 
E,E,E,2 | 
E,4 | 
G,3/E,/E,2 | 
E,4 ||  
[M:3/4]E,4B,2 :|]  



